X:3548
L:1/4
M:3/4
K:G
"G" b3 | b a/g/ f/e/ | d3 | B d g |"D7" f2 a | c e a |"G" g2 b | z d g | b3 | b a/g/ f/e/ | d3 | 
 B d g |"D" f2 a |"A7" e2 a |"D" d3/2 d/ d | d z z ||"D7" d/c'/ c'/c'/ c'/c'/ | c' e f |"G" g2 B | 
 e d B |"D7" c3/2 a/ f | e d ^c |"G" d b3/2 a/ | f g e |"D7" d/c'/ c'/c'/ c'/c'/ | c' e f | 
"G" g2 z |"C" e3 |"D7" d2 e | f b3/2 a/ |"G" g3/2 g/ g | g z z |:[K:C]"C" g/g/ g e | a/a/ a e | 
"G7" g/g/ g d | f z z | B d f |1 b2 a |"C" c e g | a2 g :|2 a2 g |"C" c3/2 c/ c | c z z |]

